X:1
T:The Eden Above
T:The Eden Above
T:Willard W. Whitney
T:Willard W. Whitney, 1872
T:Public Domain Courtesy of the Cyber Hymnal™
T:Public Domain Courtesy of the Cyber Hymnal™
C:Willard W. Whitney
Z:Public Domain
Z:Courtesy of the Cyber Hymnal™
%%score ( 1 2 ) ( 3 4 )
L:1/8
Q:1/4=113
M:4/4
K:Ab
V:1 treble 
V:2 treble 
V:3 bass 
V:4 bass 
V:1
 ([CA]>[CB]) | [Ec]2 [FA]>[DF] [CE]2 [DF]>[DG] | [CA]6 ([EA]>[EB]) | %3
w: 1.~We~shall *|meet in the E- den a-|bove, In~that *|
w: 2.~When~we *|meet in the E- den a-|bove, When~we *|
w: 3.~The *|saints of all ag- es are|there, The *|
 [Ec]2 [EB]>[EA] [Ee]2 [Ee]>[Ec] |S [EB]6 ([FB]>[Fc]) | [Fd]2 [Fd]>[Fc] [FB]2 [FB]>[FA] | %6
w: beau- ti- ful land of the|blest; All~our *|tri- als and pains will be|
w: en- ter that bliss- ful a-|bode, All~the *|good who have passed on be-|
w: pro- phets and mar- tyrs of|old; The *|child- ren whose voic- es on|
 ([EG]2 [DA]2 [DB]2) ([CA]>[DF]) | [CE]2 [CE]>[CE] [Ec]2 [Ec]>[DB] | [CA]6!fine! || %9
w: o’er, * * When~we *|en- ter that man- sion of|rest.|
w: fore, * * We~shall *|meet in the Ci- ty of|God.|
w: earth~are~still, * * Now *|sing in that ci- ty of|gold.|
"^Refrain" [CA]>[DB] | c6"^Repeat softly" [FA]>[DF] | E6 [CA]>[Ec] | e6 [Ee]>[Ec] | B6!D.S.! |] %14
w: |||||
w: In the|E- den a-|bove, In the|E- den a-|bove,|
w: |||||
V:2
 x2 | x8 | x8 | x8 | x8 | x8 | x8 | x8 | x6 || x2 | (E2 E>E E2) x2 | (C2 C>C C2) x2 | %12
 (E2 E>E E2) x2 | (E2 E>E E2) |] %14
V:3
 [A,,A,]>[A,,A,] | [A,,A,]2 [D,A,]>[D,A,] [E,A,]2 E,>E, | [A,,E,]6 [C,A,]>[E,G,] | %3
w: ~ ~|~ ~ ~ ~ ~ ~|~ ~ ~|
 A,2 A,>[A,C] [A,C]2 [A,C]>A, | [E,G,]6 ([D,B,]>[C,=A,]) | %5
w: ~ ~ ~ ~ ~ ~|~ ~ *|
 [B,,B,]2 [B,,B,]>[C,=A,] [D,B,]2 [D,B,]>[=D,B,] | ([E,B,]2 [E,A,]2 [D,G,]2) ([F,A,]>[D,A,]) | %7
w: ~ ~ ~ ~ ~ ~|~ * * ~ *|
 [E,A,]2 [E,A,]>[E,A,] [E,A,]2 [E,G,]>[E,G,] | [A,,A,]6 || [A,,A,]>[A,,A,] | %10
w: ~ ~ ~ ~ ~ ~|~|In the|
 [A,,A,]2 [A,,A,]>[A,,A,] [A,,A,]2 [D,A,]>[D,A,] | [A,,A,]2 [A,,A,]>[A,,A,] [A,,A,]2 A,>A, | %12
w: beau- ti- ful, beau- ti- ful|E- den a- bove, In the|
 [A,C]2 [A,C]>[A,C] [A,C]2 [A,C]>A, | [E,G,]2 [E,G,]>[E,G,] [E,G,]2 |] %14
w: beau- ti- ful, beau- ti- ful|E- den a- bove,|
V:4
 x2 | x6 E,>E, | x8 | A,2 A,3/2 x5/2 A,/ x3/2 | x8 | x8 | x8 | x8 | x6 || x2 | x8 | x6 A,>A, | %12
 x15/2 A,/ | x6 |] %14

